z_dist/img/bg/bp768/about-header-wave.svg

<svg width="768" height="1072" fill="none" xmlns="http://www.w3.org/2000/svg"><path fill-rule="evenodd" clip-rule="evenodd" d="M768 0H0v1022.51l32-11.52c32-11.524 96.001-34.563 160-42.243 42.667-5.12 85.333-3.414 128-1.707 21.333.853 42.667 1.707 64 1.707 19.657 0 39.314-1.731 58.972-3.462 44.342-3.904 88.685-7.808 133.028 8.155 15.114 2.699 22.443 5.534 30.661 8.714 8.021 3.103 16.89 6.534 34.672 10.486 36 8 74.4 31.73 94.667 52.48 20.267 20.75 32 26.88 32 26.88V0z" fill="#FFFCFF"/></svg>

<svg width="768" height="1072" viewBox="0 0 768 1072" fill="none" xmlns="http://www.w3.org/2000/svg">
<path fill-rule="evenodd" clip-rule="evenodd" d="M768 0H0.00012207L0 907.307V1022.51L32 1010.99L32.0007 1010.99C64.0009 999.466 128.001 976.427 192 968.747C234.667 963.627 277.333 965.333 320 967.04C341.333 967.893 362.667 968.747 384 968.747C403.657 968.747 423.314 967.016 442.972 965.285C487.314 961.381 531.657 957.477 576 973.44C591.114 976.139 598.443 978.974 606.661 982.154C614.682 985.257 623.551 988.688 641.333 992.64C677.333 1000.64 715.733 1024.37 736 1045.12C756.267 1065.87 768 1072 768 1072L768 908L768 907.307L768 0Z" fill="#FFFCFF"/>
</svg>
